X: 73
T:Big Sandy River
C:Adam Steffey solo
M:4/4
L:1/8
Q:1/8=460
K:C
"F"^f|"F"ae^c2d2^d2|"C"eee^f edBd|"C"^cBcB A^FEF|"G7"^GBAB ^ce^f^g|!
"F"a2^c2 d2^d2|"C"eee^f e^gfa|"G7"^ge^fg afe^c|"F"A2AA A2^f^g|!
"F"ae^c2d2^d2|"C"eee^f e^gfb|"G7"^gb^fb egfe|"F"^f^gaf ed^cd|!
"C"e2e2e2e2|"C"e2e2 e^fed|"C"^cABc AcAc|"G7"BA^GB A^FE^C|!
"F"A,B,^CD E^FGA|"G7"Bd^cB A^FDF|"C"E^F^GB ABBA| "G7"B^cde ^f^ga2|!
"F"AA^gA A^fAA|"C"eAA^f eAAe|"G7"z2d2^c2B2|"F"AAAB A^cBc|!
"G7"dBAG ^FDGB|"F"AG^FE DFEF| "G7"^GBAG E^CA,2|
K:A
"E7"EDA,C ECA,B,|"A"CDEF =GABd|"A"cBAF DFEF|"E7"GBAB cefg|"A"afec 
AFEC|"A"A,8| \

